X: 22152
T: Kyloe Burn
R: reel
M: 4/4
K: Gmajor
|:d2|"G" g2dg "C" ecce|"G"d2Bd gdBd|"Am" (3cdc Ac "G" BGGB|"Am" cAag "D7"fddf
"G" g2dg "C"ecce|"G"(3ded Bd gdBd|"Am" (3cdc Ac "G" BGag|"D7" fdef "G"g2:|
a2|"G" b2gb "D7"affa|"Em"(3gag eg "D"fddf|"C" ecce "G" dBBd|"Am" cAag "D7"fdfa|
"G" b2gb "D7" affa|"Em" (3gag eg "D" fddf|"C"ecce "G"dBag|"D7"fdef "G" g3 a|
"G"b2gb "D7" affa|"Em"(3gag eg "D" fddf|"C"ecce "G" dBBd|"Am"cAag "D7" fdef|
"G" g2dg "C"ecce|"G"(3ded Bd gdBd|"Am" (3cdc Ac "G" BGag|"D7" fdef "G"g2:|

